X: 27867
T: Moulouf's
R: reel
M: 4/4
K: Adorian
|:ABcd eAce|gedB GBAD|GABd gfgb|1 agab gedB:|2 aged eage||
|:de~g2 dega|bage de~g2|dega gedB|GBAG cedB|
dege dege|dBAB dega|bgaf gefa|gedB cedB:|

